colorful-battery-indicator@aneruam/icons/battery-90-charging.svg

<?xml version="1.0" encoding="UTF-8" standalone="no"?>
<svg
   xmlns:dc="http://purl.org/dc/elements/1.1/"
   xmlns:cc="http://creativecommons.org/ns#"
   xmlns:rdf="http://www.w3.org/1999/02/22-rdf-syntax-ns#"
   xmlns:svg="http://www.w3.org/2000/svg"
   xmlns="http://www.w3.org/2000/svg"
   xmlns:sodipodi="http://sodipodi.sourceforge.net/DTD/sodipodi-0.dtd"
   xmlns:inkscape="http://www.inkscape.org/namespaces/inkscape"
   viewBox="0 0 16 16"
   version="1.1"
   id="svg8"
   sodipodi:docname="battery-level-90-charging-symbolic.svg"
   inkscape:version="1.0.2 (e86c870879, 2021-01-15)">
   <metadata
      id="metadata14">
      <rdf:RDF>
         <cc:Work
            rdf:about="">
            <dc:format>image/svg+xml</dc:format>
            <dc:type
               rdf:resource="http://purl.org/dc/dcmitype/StillImage" />
         </cc:Work>
      </rdf:RDF>
   </metadata>
   <defs
      id="defs12" />
   <sodipodi:namedview
      pagecolor="#ffffff"
      bordercolor="#666666"
      borderopacity="1"
      objecttolerance="10"
      gridtolerance="10"
      guidetolerance="10"
      inkscape:pageopacity="0"
      inkscape:pageshadow="2"
      inkscape:window-width="1366"
      inkscape:window-height="738"
      id="namedview10"
      showgrid="false"
      inkscape:zoom="36.75"
      inkscape:cx="8"
      inkscape:cy="7.9863946"
      inkscape:window-x="0"
      inkscape:window-y="0"
      inkscape:window-maximized="1"
      inkscape:current-layer="svg8" />
   <g transform="translate(1.6,0) scale(0.8,1)">
      <g
         fill="#bebebe"
         id="g6">
         <path
            opacity=".4"
            d="m5 0v2h-3v14h12v-14h-3v-2zm5 3l-1 5h3l-6 7 1-5h-3z"
            id="path2" />
         <path
            d="m2 2v14h12v-14zm8 1l-1 5h3l-6 7 1-5h-3z"
            id="path4" />
      </g>
      <path
         style="fill:#6ee89a;stroke-width:0.0272109;fill-opacity:1"
         d="M 2.0136054,8.9931973 V 2 H 8 13.986395 V 8.9931973 15.986395 H 8 2.0136054 Z M 9.0048378,11.512496 C 10.652177,9.5906278 12,8.0110359 12,8.0022922 12,7.9935486 11.32834,7.9863946 10.507422,7.9863946 H 9.0148446 L 9.5000424,5.5578231 C 9.7669012,4.2221088 9.9921565,3.1005023 10.00061,3.065364 10.00911,3.030226 10.00471,3.005736 9.99091,3.010942 9.977123,3.016152 8.6226524,4.5877548 6.9809767,6.5034011 l -2.9848652,3.4829932 1.4944758,0.00703 1.4944759,0.00703 -0.4854337,2.428343 c -0.2669886,1.335589 -0.492662,2.462016 -0.5014966,2.503173 -0.00883,0.04116 -0.00985,0.07483 -0.00226,0.07483 0.00759,0 1.3616256,-1.572438 3.0089646,-3.494307 z"
         id="path839" />
   </g>
</svg>

<svg xmlns="http://www.w3.org/2000/svg" viewBox="0 0 16 16">
    <g fill="#bebebe">
        <path d="M5.6 0v2H3.2v14h9.6V2h-2.4V0zm4 3-.8 5h2.4l-4.8 7 .8-5H4.8z" opacity=".4"/>
        <path d="M3.2 2v14h9.6V2zm6.4 1-.8 5h2.4l-4.8 7 .8-5H4.8z"/>
    </g>
    <path d="M2.014 8.993V2h11.972v13.986H2.014Zm6.99 2.52A520 520 0 0 0 12 8.002c0-.01-.672-.017-1.493-.017H9.015L9.5 5.558l.5-2.493c.01-.035.005-.06-.01-.054a419 419 0 0 0-3.009 3.492L3.996 9.986l1.495.007L6.985 10 6.5 12.43l-.502 2.503c-.009.041-.01.075-.002.075.007 0 1.361-1.573 3.009-3.495" style="fill:#6ee89a;stroke-width:.0272109;fill-opacity:1" transform="matrix(.8 0 0 1 1.6 0)"/>
</svg>
